icon-themes/sifr_svg/cmd/lc_togglebreakpoint.svg

<svg viewBox="0 0 24 24" xmlns="http://www.w3.org/2000/svg"><path d="m5 2v12c-2.2 0-4 1.8-4 4 0 2.209139 1.8 4 4 4h5.71875c-.61875-.57371-1.2021723-1.24918-1.6191406-2h-2.0996094-2c-1.1045695 0-2-.9-2-2 0-1.104569.8954305-2 2-2h2v-12h10 2c1.1 0 2 .8954305 2 2 0 1.1-.9 2-2 2h-2v.0703125c1.363771.1728126 2.660002.6937397 3.763672 1.5292969 1.366949-.6875228 2.233965-2.0766296 2.236328-3.5996094 0-2.2-1.790861-4-4-4zm11 7c-3.865993 0-7 3.134007-7 7 0 3.52529 2.609369 6.433225 6 6.919922v-2.019531c-2.282304-.463221-4-2.481388-4-4.900391s1.717696-4.43717 4-4.900391c.643439-.182847.71146-.120655 1-.099609 2.521587 0 4.602051 1.868087 4.945312 4.294922l1.976563 1.705078c.045936-.335654.078125-.663378.078125-1 0-3.865993-3.134007-7-7-7zm0 3.373047v9l2-2 2 3.626953h2v-1l-2-3.626953h3zm-1 .802734c-1.197185.423267-1.998218 1.554415-2 2.824219.000955 1.270521.802141 2.402665 2 2.826172z" fill="#555753"/></svg>

<svg xmlns="http://www.w3.org/2000/svg" viewBox="0 0 24 24">
  <path
     style="fill:#555753"
     d="M 5 2 L 5 14 C 2.8 14 1 15.8 1 18 C 1 20.209139 2.8 22 5 22 L 10.71875 22 C 10.1 21.42629 9.5165777 20.75082 9.0996094 20 L 7 20 L 5 20 C 3.8954305 20 3 19.1 3 18 C 3 16.895431 3.8954305 16 5 16 L 7 16 L 7 4 L 17 4 L 19 4 C 20.1 4 21 4.8954305 21 6 C 21 7.1 20.1 8 19 8 L 17 8 L 17 8.0703125 C 18.363771 8.2431251 19.660002 8.7640522 20.763672 9.5996094 C 22.130621 8.9120866 22.997637 7.5229798 23 6 C 23 3.8 21.209139 2 19 2 L 5 2 z M 16 9 C 12.134007 9 9 12.134007 9 16 C 9 19.52529 11.609369 22.433225 15 22.919922 L 15 20.900391 C 12.717696 20.43717 11 18.419003 11 16 C 11 13.580997 12.717696 11.56283 15 11.099609 C 15.643439 10.916762 15.71146 10.978954 16 11 C 18.521587 11 20.602051 12.868087 20.945312 15.294922 L 22.921875 17 C 22.967811 16.664346 23 16.336622 23 16 C 23 12.134007 19.865993 9 16 9 z M 16 12.373047 L 16 21.373047 L 18 19.373047 L 20 23 L 22 23 L 22 22 L 20 18.373047 L 23 18.373047 L 16 12.373047 z M 15 13.175781 C 13.802815 13.599048 13.001782 14.730196 13 16 C 13.000955 17.270521 13.802141 18.402665 15 18.826172 L 15 13.175781 z "
     />
</svg>
